icons/entity/icon_cashback-bonus_m_black.svg

<svg height="24" viewBox="0 0 24 24" width="24" xmlns="http://www.w3.org/2000/svg"><g fill="none" fill-rule="evenodd"><path d="m0 0h24v24h-24z"/><g fill="#0b1f35" fill-rule="nonzero" transform="translate(3 3)"><path d="m9 18c-4.97056275 0-9-4.0294373-9-9 0-4.97056275 4.02943725-9 9-9 4.9705627 0 9 4.02943725 9 9 0 4.9705627-4.0294373 9-9 9zm0-.9473684c4.4473456 0 8.0526316-3.605286 8.0526316-8.0526316 0-4.44734562-3.605286-8.05263158-8.0526316-8.05263158-4.44734562 0-8.05263158 3.60528596-8.05263158 8.05263158 0 4.4473456 3.60528596 8.0526316 8.05263158 8.0526316z"/><path d="m9.984 4.88457143c.072.1872 1.6896 4.57817143 1.7376 4.71085714.0144.03497143.0048.09668572-.0516.11725714l-.9456.36308569c-.0468.0174857-.0984-.0082285-.1164-.0534857-.0168-.0462857-.3864-1.12114284-.426-1.22811427l-2.322-.01028572-.4644 1.23839999c-.0156.0432-.066.0730286-.1152.0534857l-.9444-.36308569c-.048-.01954285-.072-.072-.054-.11828571l1.7364-4.70982857c.156-.43508572.36-.88457143.984-.88457143s.8196.44228571.9828.88457143zm-3.984 6.97165717v1.0491428c0 .0534857.042.0946286.0924.0946286h5.8152c.0516 0 .0924-.0411429.0924-.0946286v-1.0491428c0-.0514286-.0408-.0936-.0924-.0936h-5.8152c-.0504 0-.0924.0411428-.0924.0936zm2.1804-4.05257146h1.6356l-.732-2.35954285h-.1896z"/></g></g></svg>

<svg xmlns="http://www.w3.org/2000/svg" width="24" height="24" viewBox="0 0 24 24">
  <g fill="none" fill-rule="evenodd">
    <rect width="24" height="24"/>
    <g fill="#0B1F35" fill-rule="nonzero" transform="translate(3 3)">
      <path d="M9,18 C4.02943725,18 0,13.9705627 0,9 C0,4.02943725 4.02943725,0 9,0 C13.9705627,0 18,4.02943725 18,9 C18,13.9705627 13.9705627,18 9,18 Z M9,17.0526316 C13.4473456,17.0526316 17.0526316,13.4473456 17.0526316,9 C17.0526316,4.55265438 13.4473456,0.947368421 9,0.947368421 C4.55265438,0.947368421 0.947368421,4.55265438 0.947368421,9 C0.947368421,13.4473456 4.55265438,17.0526316 9,17.0526316 Z"/>
      <path d="M9.984,4.88457143 C10.056,5.07177143 11.6736,9.46274286 11.7216,9.59542857 C11.736,9.6304 11.7264,9.69211429 11.67,9.71268571 L10.7244,10.0757714 C10.6776,10.0932571 10.626,10.0675429 10.608,10.0222857 C10.5912,9.976 10.2216,8.90114286 10.182,8.79417143 L7.86,8.78388571 L7.3956,10.0222857 C7.38,10.0654857 7.3296,10.0953143 7.2804,10.0757714 L6.336,9.71268571 C6.288,9.69314286 6.264,9.64068571 6.282,9.5944 L8.0184,4.88457143 C8.1744,4.44948571 8.3784,4 9.0024,4 C9.6264,4 9.822,4.44228571 9.9852,4.88457143 L9.984,4.88457143 Z M6,11.8562286 L6,12.9053714 C6,12.9588571 6.042,13 6.0924,13 L11.9076,13 C11.9592,13 12,12.9588571 12,12.9053714 L12,11.8562286 C12,11.8048 11.9592,11.7626286 11.9076,11.7626286 L6.0924,11.7626286 C6.042,11.7626286 6,11.8037714 6,11.8562286 Z M8.1804,7.80365714 L9.816,7.80365714 L9.084,5.44411429 L8.8944,5.44411429 L8.1804,7.80365714 Z"/>
    </g>
  </g>
</svg>
